X: 1
T: I Looked East And I Looked West
M: 2/4
L: 1/8
R: polka
K: Gmaj
|: GD | GB B/c/B/A/ | FA AD | G>A Bc | d2 cA |
GB B/c/B/A/ | FA AB | cA FA | G2 :|
|: Bd | g2 fe | fA A>B | cd ef | g2 fe |
dg fe | fA AB | cd/c/ BA | G2 :|
